X:9330
T:Lassie Look Before Ye
R:strathspey
M:C
L:1/8
K:Dmix
F |\
"D"D>AF>A D>AF>A | "C"E<cc>G E2CE | "D"D>AF>A D>AF>A | "D"DA "A7"F2E>D :|
"D"d>fA>f d>fA>f | "C"c>de>f "A7"g2f>e | "D"d>fA>f d>fA>f | "D"d>ef>g "A7"a2f>e |
"D"d>fA>f d>fA>f | "C"c>de>f "A7"g2f>e | "D"a>f"A7"g>e "Bm"f>d"A7"e>^c | "G"d>BA>G "D"F2E>D |]
